16x16/apps/2048-qt.svg

<svg height="16" width="16" xmlns="http://www.w3.org/2000/svg"><rect fill="#70c74d" height="16" rx="1.2" width="16"/><g fill="#f4f4f7"><path d="m9.5 9c-.823 0-1.5 0-1.5 1.5 0 .384.259.733.5 1-.241.267-.5.616-.5 1 0 1.5.677 1.5 1.5 1.5s1.5 0 1.5-1.5c0-.384-.259-.733-.5-1 .241-.267.5-.616.5-1 0-1.5-.677-1.5-1.5-1.5zm0 1c.282 0 .5.218.5.5s-.218.5-.5.5a.493.493 0 0 1 -.5-.5c0-.282.218-.5.5-.5zm0 2c.282 0 .5.218.5.5s-.218.5-.5.5a.493.493 0 0 1 -.5-.5c0-.282.218-.5.5-.5z"/><path d="m5 9v2h1v-2h1v2h.5v1h-.5v2h-1v-2h-2v-3zm.5-6s-.354-.007-.724.178c-.369.184-.776.655-.776 1.322h1c0-.5.5-.5.5-.5s.5 0 .5.5a.82.82 0 0 1 -.203.578c-.133.167-.347.334-.597.522-.25.187-.536.395-.778.697a1.924 1.924 0 0 0 -.422 1.203v.5h3v-1h-1.824c.015-.022.01-.056.027-.078.133-.167.347-.334.597-.522.25-.187.536-.395.778-.697s.422-.717.422-1.203c0-.667-.407-1.138-.776-1.322-.37-.185-.724-.178-.724-.178z" fill-rule="evenodd"/><path d="m9.75 3c-.96 0-1.75.79-1.75 1.75v1.5c0 .96.79 1.75 1.75 1.75s1.75-.79 1.75-1.75v-1.5c0-.96-.79-1.75-1.75-1.75zm0 1c.424 0 .75.326.75.75v1.5c0 .424-.326.75-.75.75a.738.738 0 0 1 -.75-.75v-1.5c0-.424.326-.75.75-.75z"/></g></svg>

<svg height="16" width="16" xmlns="http://www.w3.org/2000/svg">
    <rect fill="#70c74d" height="16" rx="1.2" width="16"/>
    <g fill="#f4f4f7">
        <path d="M9.5 9C8.677 9 8 9 8 10.5c0 .384.259.733.5 1-.241.267-.5.616-.5 1C8 14 8.677 14 9.5 14s1.5 0 1.5-1.5c0-.384-.259-.733-.5-1 .241-.267.5-.616.5-1C11 9 10.323 9 9.5 9zm0 1c.282 0 .5.218.5.5s-.218.5-.5.5a.493.493 0 0 1-.5-.5c0-.282.218-.5.5-.5zm0 2c.282 0 .5.218.5.5s-.218.5-.5.5a.493.493 0 0 1-.5-.5c0-.282.218-.5.5-.5z"/>
        <path d="M5 9v2h1V9h1v2h.5v1H7v2H6v-2H4V9zm.5-6s-.354-.007-.724.178C4.407 3.362 4 3.833 4 4.5h1c0-.5.5-.5.5-.5s.5 0 .5.5a.82.82 0 0 1-.203.578c-.133.167-.347.334-.597.522-.25.187-.536.395-.778.697A1.924 1.924 0 0 0 4 7.5V8h3V7H5.176c.015-.022.01-.056.027-.078.133-.167.347-.334.597-.522.25-.187.536-.395.778-.697S7 4.986 7 4.5c0-.667-.407-1.138-.776-1.322C5.854 2.993 5.5 3 5.5 3z" fill-rule="evenodd"/>
        <path d="M9.75 3C8.79 3 8 3.79 8 4.75v1.5C8 7.21 8.79 8 9.75 8s1.75-.79 1.75-1.75v-1.5c0-.96-.79-1.75-1.75-1.75zm0 1c.424 0 .75.326.75.75v1.5c0 .424-.326.75-.75.75A.738.738 0 0 1 9 6.25v-1.5c0-.424.326-.75.75-.75z"/>
    </g>
</svg>
